icon-themes/breeze_svg/cmd/sc_arrowshapes.circular-arrow.svg

<svg viewBox="0 0 16 16" xmlns="http://www.w3.org/2000/svg"><path d="m7.5 4c-3.03756 0-5.5 2.23858-5.5 5h2c0-1.65685 1.567-3 3.5-3s3.5 1.34315 3.5 3h-2l3 3 3-3h-2c0-2.76142-2.46244-5-5.5-5z" fill="#4d4d4d"/></svg>

<svg xmlns="http://www.w3.org/2000/svg" viewBox="0 0 16 16">
 <path 
     style="fill:#4d4d4d" 
     d="M 7.5 4 C 4.46244 4 2 6.23858 2 9 L 4 9 C 4 7.34315 5.567 6 7.5 6 C 9.433 6 11 7.34315 11 9 L 9 9 L 12 12 L 15 9 L 13 9 C 13 6.23858 10.53756 4 7.5 4 z "
     />
 </svg>
